X:1
T:Bacon on the Rind
M:6/8
L:1/8
K:Eb
 E/2E/2| G2 B B2- B| c B2 B2 B| B E2 D2 E| F3 A2 A| A2 G A2 B| c c2 c2 e|\
 e2 cB G2| B2 B E2 F| G B2 B2 B| c B2- B2 c| _d d2 e2 B| c3 c2 c| c2 c c2 c|\
 c B2 z BB| =A2 B d2 c| d2 z2 EF| E E2 E2 E| E E4 F| _G2 A F2 G| E3 _G2- A|\
 B2 BB c2| _d2 c- B2 B| B2 AG E2| F3 G2 A| B e2 d2 c| c B2 G2 F| E2 E A2 B|\
 c3 c2- d| e2 e d2 c| c B2 e2 e| E E2 G2 F| E3- E z||
